img/svg/logo.svg

<svg width="200" height="27" viewBox="0 0 200 20" fill="none" xmlns="http://www.w3.org/2000/svg">
<path d="M10.5371 15L9.50195 11.6016H4.29688L3.26172 15H0L5.03906 0.664062H8.74023L13.7988 15H10.5371ZM8.7793 9.0625L7.74414 5.74219C7.67904 5.52083 7.59115 5.23763 7.48047 4.89258C7.3763 4.54102 7.26888 4.1862 7.1582 3.82812C7.05404 3.46354 6.9694 3.14779 6.9043 2.88086C6.83919 3.14779 6.74805 3.47982 6.63086 3.87695C6.52018 4.26758 6.41276 4.63867 6.30859 4.99023C6.20443 5.3418 6.12956 5.59245 6.08398 5.74219L5.05859 9.0625H8.7793ZM22.5293 4.08203H25.8105L21.4844 9.31641L26.1914 15H22.8125L18.3496 9.46289V15H15.3711V4.08203H18.3496V9.38477L22.5293 4.08203ZM30.6348 4.08203V8.39844C30.6348 8.61979 30.625 8.89974 30.6055 9.23828C30.5924 9.57031 30.5729 9.90885 30.5469 10.2539C30.5208 10.599 30.4948 10.9082 30.4688 11.1816C30.4427 11.4551 30.4232 11.6406 30.4102 11.7383L35.4492 4.08203H39.0332V15H36.1523V10.6445C36.1523 10.2865 36.1654 9.89258 36.1914 9.46289C36.2174 9.02669 36.2467 8.61654 36.2793 8.23242C36.3118 7.84831 36.3346 7.55859 36.3477 7.36328L31.3281 15H27.7539V4.08203H30.6348ZM55.9277 4.08203V15H53.1445V9.63867C53.1445 9.11133 53.1543 8.59375 53.1738 8.08594C53.1934 7.57812 53.2227 7.10938 53.2617 6.67969H53.2031L50.1855 15H47.9492L44.8828 6.66016H44.8047C44.8568 7.09635 44.8926 7.5651 44.9121 8.06641C44.9316 8.56771 44.9414 9.11784 44.9414 9.7168V15H42.168V4.08203H46.3867L49.1016 11.4844L51.8652 4.08203H55.9277ZM68.9844 9.52148C68.9844 10.4329 68.8607 11.2402 68.6133 11.9434C68.3724 12.6465 68.0176 13.2422 67.5488 13.7305C67.0866 14.2122 66.5267 14.5768 65.8691 14.8242C65.2181 15.0716 64.4824 15.1953 63.6621 15.1953C62.8939 15.1953 62.1875 15.0716 61.543 14.8242C60.9049 14.5768 60.3483 14.2122 59.873 13.7305C59.4043 13.2422 59.0397 12.6465 58.7793 11.9434C58.5254 11.2402 58.3984 10.4329 58.3984 9.52148C58.3984 8.31055 58.6133 7.28516 59.043 6.44531C59.4727 5.60547 60.0846 4.96745 60.8789 4.53125C61.6732 4.09505 62.6204 3.87695 63.7207 3.87695C64.7428 3.87695 65.6478 4.09505 66.4355 4.53125C67.2298 4.96745 67.8516 5.60547 68.3008 6.44531C68.7565 7.28516 68.9844 8.31055 68.9844 9.52148ZM61.4355 9.52148C61.4355 10.2376 61.5137 10.8398 61.6699 11.3281C61.8262 11.8164 62.0703 12.1842 62.4023 12.4316C62.7344 12.679 63.1673 12.8027 63.7012 12.8027C64.2285 12.8027 64.6549 12.679 64.9805 12.4316C65.3125 12.1842 65.5534 11.8164 65.7031 11.3281C65.8594 10.8398 65.9375 10.2376 65.9375 9.52148C65.9375 8.79883 65.8594 8.19987 65.7031 7.72461C65.5534 7.24284 65.3125 6.88151 64.9805 6.64062C64.6484 6.39974 64.2155 6.2793 63.6816 6.2793C62.8939 6.2793 62.321 6.54948 61.9629 7.08984C61.6113 7.63021 61.4355 8.44076 61.4355 9.52148ZM81.123 6.94336C81.123 7.5293 80.9375 8.0306 80.5664 8.44727C80.2018 8.85742 79.6615 9.12109 78.9453 9.23828V9.31641C79.7005 9.40755 80.3092 9.67122 80.7715 10.1074C81.2337 10.5371 81.4648 11.0807 81.4648 11.7383C81.4648 12.3633 81.3021 12.9232 80.9766 13.418C80.651 13.9062 80.1335 14.2936 79.4238 14.5801C78.7142 14.86 77.7865 15 76.6406 15H71.4453V4.08203H76.6406C77.4935 4.08203 78.2585 4.17318 78.9355 4.35547C79.6126 4.53125 80.1465 4.82747 80.5371 5.24414C80.9277 5.66081 81.123 6.22721 81.123 6.94336ZM78.3789 11.582C78.3789 11.1523 78.2096 10.8431 77.8711 10.6543C77.5391 10.459 77.0443 10.3613 76.3867 10.3613H74.4238V12.9395H76.4453C77.0052 12.9395 77.4674 12.8353 77.832 12.627C78.1966 12.4186 78.3789 12.0703 78.3789 11.582ZM78.1055 7.17773C78.1055 6.83919 77.972 6.58854 77.7051 6.42578C77.4382 6.26302 77.0443 6.18164 76.5234 6.18164H74.4238V8.33984H76.1816C76.8132 8.33984 77.2917 8.2487 77.6172 8.06641C77.9427 7.88411 78.1055 7.58789 78.1055 7.17773ZM98.1934 15L97.1582 11.6016H91.9531L90.918 15H87.6562L92.6953 0.664062H96.3965L101.455 15H98.1934ZM96.4355 9.0625L95.4004 5.74219C95.3353 5.52083 95.2474 5.23763 95.1367 4.89258C95.0326 4.54102 94.9251 4.1862 94.8145 3.82812C94.7103 3.46354 94.6257 3.14779 94.5605 2.88086C94.4954 3.14779 94.4043 3.47982 94.2871 3.87695C94.1764 4.26758 94.069 4.63867 93.9648 4.99023C93.8607 5.3418 93.7858 5.59245 93.7402 5.74219L92.7148 9.0625H96.4355ZM112.803 15H109.824V6.31836H107.08C106.943 7.91992 106.781 9.28385 106.592 10.4102C106.403 11.5365 106.162 12.4544 105.869 13.1641C105.576 13.8672 105.212 14.3815 104.775 14.707C104.339 15.0326 103.802 15.1953 103.164 15.1953C102.812 15.1953 102.497 15.1693 102.217 15.1172C101.943 15.0651 101.693 14.987 101.465 14.8828V12.5C101.608 12.5586 101.761 12.6074 101.924 12.6465C102.087 12.679 102.253 12.6953 102.422 12.6953C102.611 12.6953 102.79 12.6204 102.959 12.4707C103.128 12.321 103.288 12.0638 103.438 11.6992C103.587 11.3281 103.727 10.8171 103.857 10.166C103.994 9.51497 104.118 8.69141 104.229 7.69531C104.339 6.69922 104.443 5.49479 104.541 4.08203H112.803V15ZM120.439 3.87695C121.449 3.87695 122.318 4.07227 123.047 4.46289C123.776 4.84701 124.339 5.4069 124.736 6.14258C125.133 6.87826 125.332 7.77669 125.332 8.83789V10.2832H118.291C118.324 11.123 118.574 11.7839 119.043 12.2656C119.518 12.7409 120.176 12.9785 121.016 12.9785C121.712 12.9785 122.35 12.9069 122.93 12.7637C123.509 12.6204 124.105 12.4056 124.717 12.1191V14.4238C124.176 14.6908 123.61 14.8861 123.018 15.0098C122.432 15.1335 121.719 15.1953 120.879 15.1953C119.785 15.1953 118.815 14.9935 117.969 14.5898C117.129 14.1862 116.468 13.571 115.986 12.7441C115.511 11.9173 115.273 10.8757 115.273 9.61914C115.273 8.3431 115.488 7.2819 115.918 6.43555C116.354 5.58268 116.96 4.94466 117.734 4.52148C118.509 4.0918 119.411 3.87695 120.439 3.87695ZM120.459 5.99609C119.88 5.99609 119.398 6.18164 119.014 6.55273C118.636 6.92383 118.418 7.50651 118.359 8.30078H122.539C122.533 7.85807 122.451 7.46419 122.295 7.11914C122.145 6.77409 121.917 6.50065 121.611 6.29883C121.312 6.09701 120.928 5.99609 120.459 5.99609ZM134.912 4.08203H138.193L133.867 9.31641L138.574 15H135.195L130.732 9.46289V15H127.754V4.08203H130.732V9.38477L134.912 4.08203ZM144.57 15.1953C143.49 15.1953 142.568 15 141.807 14.6094C141.045 14.2122 140.465 13.6003 140.068 12.7734C139.671 11.9466 139.473 10.8887 139.473 9.59961C139.473 8.26497 139.697 7.17773 140.146 6.33789C140.602 5.49154 141.23 4.86979 142.031 4.47266C142.839 4.07552 143.773 3.87695 144.834 3.87695C145.589 3.87695 146.24 3.95182 146.787 4.10156C147.34 4.24479 147.822 4.41732 148.232 4.61914L147.354 6.92383C146.885 6.73503 146.449 6.58203 146.045 6.46484C145.641 6.34115 145.238 6.2793 144.834 6.2793C144.313 6.2793 143.88 6.40299 143.535 6.65039C143.19 6.89128 142.933 7.25586 142.764 7.74414C142.594 8.23242 142.51 8.8444 142.51 9.58008C142.51 10.3027 142.601 10.9017 142.783 11.377C142.965 11.8522 143.229 12.207 143.574 12.4414C143.919 12.6693 144.339 12.7832 144.834 12.7832C145.452 12.7832 146.003 12.7018 146.484 12.5391C146.966 12.3698 147.435 12.1354 147.891 11.8359V14.3848C147.435 14.6712 146.956 14.8763 146.455 15C145.96 15.1302 145.332 15.1953 144.57 15.1953ZM154.902 3.85742C156.367 3.85742 157.49 4.17643 158.271 4.81445C159.053 5.45247 159.443 6.42253 159.443 7.72461V15H157.363L156.787 13.5156H156.709C156.396 13.9062 156.077 14.2253 155.752 14.4727C155.426 14.7201 155.052 14.9023 154.629 15.0195C154.206 15.1367 153.691 15.1953 153.086 15.1953C152.441 15.1953 151.862 15.0716 151.348 14.8242C150.84 14.5768 150.439 14.1992 150.146 13.6914C149.854 13.1771 149.707 12.526 149.707 11.7383C149.707 10.5794 150.114 9.72656 150.928 9.17969C151.742 8.6263 152.962 8.32031 154.59 8.26172L156.484 8.20312V7.72461C156.484 7.15169 156.335 6.73177 156.035 6.46484C155.736 6.19792 155.319 6.06445 154.785 6.06445C154.258 6.06445 153.74 6.13932 153.232 6.28906C152.725 6.4388 152.217 6.6276 151.709 6.85547L150.723 4.84375C151.302 4.53776 151.95 4.29688 152.666 4.12109C153.389 3.94531 154.134 3.85742 154.902 3.85742ZM156.484 9.94141L155.332 9.98047C154.368 10.0065 153.698 10.179 153.32 10.498C152.949 10.8171 152.764 11.237 152.764 11.7578C152.764 12.2135 152.897 12.5391 153.164 12.7344C153.431 12.9232 153.779 13.0176 154.209 13.0176C154.847 13.0176 155.384 12.8288 155.82 12.4512C156.263 12.0736 156.484 11.5365 156.484 10.8398V9.94141ZM165.498 4.08203V8.28125H169.658V4.08203H172.637V15H169.658V10.498H165.498V15H162.52V4.08203H165.498ZM185.576 4.08203V12.8223H187.178V18.916H184.502V15H177.158V18.916H174.482V12.8223H175.4C175.882 12.0866 176.286 11.2467 176.611 10.3027C176.943 9.35872 177.21 8.35938 177.412 7.30469C177.62 6.24349 177.77 5.16927 177.861 4.08203H185.576ZM182.598 6.31836H180.361C180.257 7.12565 180.124 7.9069 179.961 8.66211C179.805 9.41081 179.609 10.1335 179.375 10.8301C179.141 11.5202 178.854 12.1842 178.516 12.8223H182.598V6.31836ZM195.117 3.87695C196.348 3.87695 197.34 4.35547 198.096 5.3125C198.857 6.26953 199.238 7.67253 199.238 9.52148C199.238 10.7585 199.059 11.8001 198.701 12.6465C198.343 13.4863 197.848 14.1211 197.217 14.5508C196.585 14.9805 195.859 15.1953 195.039 15.1953C194.512 15.1953 194.059 15.1302 193.682 15C193.304 14.8633 192.982 14.6908 192.715 14.4824C192.448 14.2676 192.217 14.0397 192.021 13.7988H191.865C191.917 14.0592 191.956 14.3262 191.982 14.5996C192.008 14.873 192.021 15.14 192.021 15.4004V19.8047H189.043V4.08203H191.465L191.885 5.49805H192.021C192.217 5.20508 192.454 4.9349 192.734 4.6875C193.014 4.4401 193.35 4.24479 193.74 4.10156C194.137 3.95182 194.596 3.87695 195.117 3.87695ZM194.16 6.25977C193.639 6.25977 193.226 6.36719 192.92 6.58203C192.614 6.79688 192.389 7.11914 192.246 7.54883C192.109 7.97852 192.035 8.52214 192.021 9.17969V9.50195C192.021 10.2051 192.087 10.8008 192.217 11.2891C192.354 11.7773 192.578 12.1484 192.891 12.4023C193.21 12.6562 193.646 12.7832 194.199 12.7832C194.655 12.7832 195.029 12.6562 195.322 12.4023C195.615 12.1484 195.833 11.7773 195.977 11.2891C196.126 10.7943 196.201 10.1921 196.201 9.48242C196.201 8.41471 196.035 7.61068 195.703 7.07031C195.371 6.52995 194.857 6.25977 194.16 6.25977Z" fill="#D2E9E3"/>
</svg>

<svg width="200" height="27" viewBox="0 0 200 20" fill="none" xmlns="http://www.w3.org/2000/svg"><path d="M10.537 15l-1.035-3.398H4.297L3.262 15H0L5.04.664h3.7L13.8 15h-3.262zM8.78 9.062l-1.035-3.32a37.922 37.922 0 00-.264-.85 94.97 94.97 0 00-.322-1.064c-.104-.364-.189-.68-.254-.947-.065.267-.156.599-.273.996a97.05 97.05 0 01-.547 1.865L5.06 9.062h3.72zm13.75-4.98h3.282l-4.327 5.234L26.191 15h-3.378L18.35 9.463V15h-2.98V4.082h2.979v5.303l4.18-5.303zm8.106 0v4.316c0 .222-.01.502-.03.84-.013.332-.032.67-.058 1.016a48.68 48.68 0 01-.078.928c-.026.273-.046.459-.059.556l5.04-7.656h3.583V15h-2.88v-4.355c0-.358.012-.752.038-1.182.026-.436.056-.846.088-1.23.033-.385.056-.674.069-.87L31.328 15h-3.574V4.082h2.88zm25.293 0V15h-2.783V9.639c0-.528.01-1.045.029-1.553.02-.508.049-.977.088-1.406h-.059L50.185 15H47.95l-3.066-8.34h-.078c.052.436.088.905.107 1.406.02.502.03 1.052.03 1.65V15h-2.774V4.082h4.219l2.715 7.402 2.763-7.402h4.063zm13.056 5.44c0 .91-.123 1.718-.37 2.421a4.772 4.772 0 01-1.065 1.787 4.476 4.476 0 01-1.68 1.094c-.65.248-1.387.371-2.207.371a5.866 5.866 0 01-2.119-.37 4.711 4.711 0 01-1.67-1.095 5.1 5.1 0 01-1.094-1.787c-.254-.703-.38-1.51-.38-2.422 0-1.21.214-2.236.644-3.076.43-.84 1.042-1.478 1.836-1.914.794-.436 1.741-.654 2.842-.654 1.022 0 1.927.218 2.715.654.794.436 1.416 1.074 1.865 1.914.456.84.683 1.866.683 3.076zm-7.548 0c0 .716.078 1.318.234 1.806.156.488.4.856.732 1.104.332.247.765.37 1.3.37.526 0 .953-.123 1.279-.37.332-.248.572-.616.722-1.104.156-.488.234-1.09.234-1.807 0-.722-.078-1.321-.234-1.796-.15-.482-.39-.843-.722-1.084-.333-.241-.765-.362-1.3-.362-.787 0-1.36.27-1.718.81-.352.541-.528 1.352-.528 2.432zm19.687-2.579c0 .586-.186 1.088-.557 1.504-.364.41-.904.674-1.62.791v.078c.755.092 1.363.355 1.826.791.462.43.693.974.693 1.631 0 .625-.163 1.185-.488 1.68-.326.488-.844.876-1.553 1.162-.71.28-1.638.42-2.783.42h-5.196V4.082h5.196c.852 0 1.617.091 2.294.273.678.176 1.212.472 1.602.89.39.416.586.982.586 1.698zm-2.744 4.639c0-.43-.17-.739-.508-.928-.332-.195-.827-.293-1.484-.293h-1.963v2.579h2.021c.56 0 1.022-.105 1.387-.313.365-.208.547-.557.547-1.045zm-.273-4.404c0-.339-.134-.59-.4-.752-.268-.163-.662-.244-1.183-.244h-2.1V8.34h1.759c.631 0 1.11-.091 1.435-.274.326-.182.489-.478.489-.888zM98.193 15l-1.035-3.398h-5.205L90.918 15h-3.262L92.696.664h3.7L101.456 15h-3.262zm-1.757-5.938L95.4 5.742a37.841 37.841 0 00-.263-.85 95.165 95.165 0 00-.323-1.064c-.104-.364-.188-.68-.253-.947a22.31 22.31 0 01-.274.996 96.83 96.83 0 01-.547 1.865l-1.025 3.32h3.72zM112.803 15h-2.979V6.318h-2.744c-.137 1.602-.299 2.966-.488 4.092-.189 1.127-.43 2.044-.723 2.754-.293.703-.657 1.218-1.094 1.543-.436.326-.973.488-1.611.488a5.2 5.2 0 01-.947-.078 3.27 3.27 0 01-.752-.234V12.5c.143.059.296.107.459.146.163.033.329.05.498.05a.8.8 0 00.537-.225c.169-.15.329-.407.479-.772.149-.37.289-.882.419-1.533a26.77 26.77 0 00.372-2.47c.11-.997.214-2.201.312-3.614h8.262V15zm7.636-11.123c1.01 0 1.879.195 2.608.586a4.003 4.003 0 011.689 1.68c.397.735.596 1.634.596 2.695v1.445h-7.041c.033.84.283 1.5.752 1.983.475.475 1.133.713 1.973.713.696 0 1.334-.072 1.914-.215a9.754 9.754 0 001.787-.645v2.305a7.107 7.107 0 01-1.699.586c-.586.123-1.299.185-2.139.185-1.094 0-2.064-.202-2.91-.605a4.521 4.521 0 01-1.983-1.846c-.475-.827-.713-1.868-.713-3.125 0-1.276.215-2.337.645-3.183.436-.853 1.042-1.491 1.816-1.915.775-.43 1.677-.644 2.705-.644zm.02 2.12c-.579 0-1.061.185-1.445.556-.378.37-.596.954-.655 1.748h4.18a2.938 2.938 0 00-.244-1.182 1.837 1.837 0 00-.684-.82c-.299-.202-.683-.303-1.152-.303zm14.453-1.915h3.281l-4.326 5.234L138.574 15h-3.379l-4.463-5.537V15h-2.978V4.082h2.978v5.303l4.18-5.303zm9.658 11.113c-1.08 0-2.002-.195-2.763-.586-.762-.397-1.342-1.009-1.739-1.836-.397-.826-.595-1.884-.595-3.173 0-1.335.224-2.422.673-3.262.456-.846 1.084-1.468 1.885-1.865.808-.397 1.742-.596 2.803-.596.755 0 1.406.075 1.953.225a7.592 7.592 0 011.445.517l-.878 2.305a13.902 13.902 0 00-1.309-.46 4.115 4.115 0 00-1.211-.185c-.521 0-.954.124-1.299.371-.345.241-.602.606-.771 1.094-.17.488-.254 1.1-.254 1.836 0 .723.091 1.322.273 1.797.182.475.446.83.791 1.064.345.228.765.342 1.26.342.618 0 1.169-.081 1.65-.244a6.46 6.46 0 001.407-.703v2.549a4.894 4.894 0 01-1.436.615c-.495.13-1.123.195-1.885.195zm10.332-11.338c1.465 0 2.588.32 3.369.957.782.638 1.172 1.609 1.172 2.91V15h-2.08l-.576-1.484h-.078a5.57 5.57 0 01-.957.957c-.326.247-.7.43-1.123.546-.423.118-.938.176-1.543.176-.645 0-1.224-.123-1.738-.37a2.762 2.762 0 01-1.202-1.134c-.292-.514-.439-1.165-.439-1.953 0-1.159.407-2.011 1.221-2.558.814-.554 2.034-.86 3.662-.918l1.894-.059v-.478c0-.573-.149-.993-.449-1.26-.299-.267-.716-.4-1.25-.4-.527 0-1.045.074-1.553.224-.507.15-1.015.339-1.523.566l-.986-2.011a8.461 8.461 0 011.943-.723 9.429 9.429 0 012.236-.264zm1.582 6.084l-1.152.04c-.964.026-1.634.198-2.012.517-.371.32-.556.739-.556 1.26 0 .456.133.781.4.976.267.19.615.284 1.045.284.638 0 1.175-.19 1.611-.567.443-.377.664-.915.664-1.611v-.9zm9.014-5.859v4.2h4.16v-4.2h2.979V15h-2.979v-4.502h-4.16V15h-2.978V4.082h2.978zm20.078 0v8.74h1.602v6.094h-2.676V15h-7.344v3.916h-2.676v-6.094h.918a11.24 11.24 0 001.211-2.52c.332-.943.599-1.943.801-2.997a29.56 29.56 0 00.449-3.223h7.715zm-2.978 2.236h-2.237a28.166 28.166 0 01-.4 2.344 18.927 18.927 0 01-.586 2.168c-.234.69-.521 1.354-.859 1.992h4.082V6.318zm12.519-2.441c1.231 0 2.223.478 2.979 1.436.761.957 1.142 2.36 1.142 4.208 0 1.237-.179 2.28-.537 3.125-.358.84-.853 1.475-1.484 1.905-.632.43-1.358.644-2.178.644-.527 0-.98-.065-1.357-.195-.378-.137-.7-.31-.967-.518a4.633 4.633 0 01-.694-.683h-.156a8.46 8.46 0 01.156 1.602v4.404h-2.978V4.082h2.422l.42 1.416h.136a4.17 4.17 0 01.713-.81c.28-.248.616-.443 1.006-.586.397-.15.856-.225 1.377-.225zm-.957 2.383c-.521 0-.934.107-1.24.322-.306.215-.531.537-.674.967-.137.43-.211.973-.225 1.63v.323c0 .703.066 1.299.196 1.787.137.488.361.86.674 1.113.319.254.755.381 1.308.381.456 0 .83-.127 1.123-.38.293-.255.511-.626.655-1.114.149-.495.224-1.097.224-1.807 0-1.067-.166-1.871-.498-2.412-.332-.54-.846-.81-1.543-.81z" fill="#D2E9E3"/></svg>
